!!!COM: Robert Schumann
!!!CNT: Deutsch
!!!TXO: Deutsch
!!!OTL: "Abschied vom Walde"
!!!LYR: von der Neun
!!!OPR: Sechs Gesa2nge
!!!OPS: Op. 89
!!!ONM: No. 4
!!!ENC: Leigh VanHandel
!!!YOR: Schumann Lieder - Max Friedlaender, ed.,
!!!YOR: New York: C. F. Peters, Vol. 3
!!!ODT: 1850/
**kern	**silbe
*staff1	*
*clefG2	*
*k[f#c#]	*
*met(C)	*
*M4/4	*
*MM[Ziemlich langsam]	*
=1	=1
4r	.
{4dd	{Nun
4cc#	schei-
8b	-det
8b	vom
=2	=2
4a	ster-
8b	-ben
8b	den
4cc#	Wal-
4f#}	-de}
=3	=3
4r	.
{4dd	{der
4cc#	Wand-
8f#	-rer
8f#	mit
=4	=4
4.b	Herz
8a	und
2f#}	Mund:}
=5	=5
4r	.
{4f#	{"Wie
4b	wardst
8cc#	du
8dd	mir
=6	=6
4.ff#	lieb
8ee	so
4dd	bal-
4cc#}	-de,}
=7	=7
4r	.
{4dd	{was
4b	sangst
8cc#	du
8dd	mir
=8	=8
4ff#	vor
4ee	all-
4dd}	-stund!}
4r	.
=9	=9
{2dd	{Wohl
8g#	wusst'
8a	ich
8cc#	dei-
8dd	-ne
=10	=10
4a	Spra-
4g}	-che,}
4r	.
{4f#	{wohl
=11	=11
4.e	kannt'
8e	ich
4cc#	dei-
4b	-nen
=12	=12
2a}	Sang,}
4r	.
{4g	{und
=13	=13
4.g	will's
16f#	an
16e	|
4ccn	man-
4b	-chem
=14	=14
4b	Ta-
4e	-ge
2ee	nach-
=15	=15
4.dd	-sin-
8b	-gen
4a#	tru2b'
4b	und
=16	=16
2cc#}	bang.}
4r	.
{4b	{Doch
=17	=17
4.g	nun,
8b	o
4ee	Wald,
4gg	dein
=18	=18
4ff#	Rau-
8ee}	schen,}
{8ee	{dein
4dd	Brau-
4b	-sen
=19	=19
2cc#	lass
2dd	mir
=20	=20
2cc#}	sein!}
4r	.
{4b	{Nicht
=21	=21
4.ee	Al-
8cc#	-les
4dd	mag
4b	ich
=22	=22
4ee	tau-
4cc#}	-schen}
4r	.
{4dd	{fu2r
=23	=23
16cc#	Herb-
16dd	|
4ee	|
8dd	-stes
4a#	Me-
4a#	-lo-
=24	=24
2b}	-dein!"
2r	.
==	==
*-	*-
